docs/img/whatsapp.svg

<svg width="15" height="15" viewBox="0 0 15 15" fill="none" xmlns="http://www.w3.org/2000/svg">
<path d="M12.4421 2.32973C11.1219 0.981757 9.297 0.25 7.43324 0.25C3.47275 0.25 0.288828 3.44662 0.327657 7.33649C0.327657 8.56892 0.677112 9.76284 1.25954 10.8412L0.25 14.5L4.01635 13.5372C5.06471 14.1149 6.22956 14.3845 7.39441 14.3845C11.3161 14.3845 14.5 11.1878 14.5 7.29797C14.5 5.41081 13.7623 3.63919 12.4421 2.32973ZM7.43324 13.1905C6.38488 13.1905 5.33651 12.9209 4.44346 12.3818L4.21049 12.2662L1.95845 12.8439L2.54087 10.6486L2.38556 10.4176C0.677112 7.68311 1.49251 4.06284 4.28815 2.36824C7.08379 0.673649 10.6948 1.48243 12.4033 4.25541C14.1117 7.02838 13.2963 10.6101 10.5007 12.3047C9.60763 12.8824 8.52044 13.1905 7.43324 13.1905ZM10.8501 8.91554L10.423 8.72297C10.423 8.72297 9.80177 8.45338 9.41349 8.26081C9.37466 8.26081 9.33583 8.2223 9.297 8.2223C9.18052 8.2223 9.10286 8.26081 9.0252 8.29932C9.0252 8.29932 8.98638 8.33784 8.44278 8.95405C8.40395 9.03108 8.32629 9.06959 8.24864 9.06959H8.20981C8.17098 9.06959 8.09332 9.03108 8.0545 8.99257L7.86035 8.91554C7.43324 8.72297 7.04496 8.49189 6.73433 8.18378C6.65668 8.10676 6.54019 8.02973 6.46253 7.9527C6.19074 7.68311 5.91894 7.375 5.7248 7.02838L5.68597 6.95135C5.64714 6.91284 5.64714 6.87432 5.60831 6.7973C5.60831 6.72027 5.60831 6.64324 5.64714 6.60473C5.64714 6.60473 5.80245 6.41216 5.91894 6.29662C5.99659 6.21959 6.03542 6.10405 6.11308 6.02703C6.19074 5.91149 6.22956 5.75743 6.19074 5.64189C6.15191 5.44932 5.68597 4.40946 5.56948 4.17838C5.49183 4.06284 5.41417 4.02432 5.29768 3.98581H5.1812C5.10354 3.98581 4.98706 3.98581 4.87057 3.98581C4.79292 3.98581 4.71526 4.02432 4.6376 4.02432L4.59877 4.06284C4.52112 4.10135 4.44346 4.17838 4.3658 4.21689C4.28815 4.29392 4.24932 4.37095 4.17166 4.44797C3.89986 4.79459 3.74455 5.21824 3.74455 5.64189C3.74455 5.95 3.82221 6.25811 3.93869 6.5277L3.97752 6.64324C4.32698 7.375 4.79292 8.02973 5.41417 8.60743L5.56948 8.76149C5.68597 8.87703 5.80245 8.95405 5.88011 9.06959C6.6955 9.76284 7.62738 10.2635 8.67575 10.5331C8.79223 10.5716 8.94755 10.5716 9.06403 10.6101C9.18052 10.6101 9.33583 10.6101 9.45232 10.6101C9.64646 10.6101 9.87943 10.5331 10.0347 10.4561C10.1512 10.3791 10.2289 10.3791 10.3065 10.302L10.3842 10.225C10.4619 10.148 10.5395 10.1095 10.6172 10.0324C10.6948 9.95541 10.7725 9.87838 10.8113 9.80135C10.889 9.6473 10.9278 9.45473 10.9666 9.26216C10.9666 9.18513 10.9666 9.0696 10.9666 8.99257C10.9666 8.99257 10.9278 8.95405 10.8501 8.91554Z" fill="#222222"/>
</svg>

<svg width="15" height="15" fill="none" xmlns="http://www.w3.org/2000/svg"><path d="M12.442 2.33C11.122.982 9.297.25 7.433.25 3.473.25.29 3.447.328 7.336c0 1.233.35 2.427.932 3.505L.25 14.5l3.766-.963a6.978 6.978 0 0 0 3.378.847c3.922 0 7.106-3.196 7.106-7.086a6.96 6.96 0 0 0-2.058-4.968ZM7.433 13.19a5.805 5.805 0 0 1-2.99-.808l-.233-.116-2.252.578.583-2.195-.155-.231c-1.709-2.735-.893-6.355 1.902-8.05 2.796-1.694 6.407-.886 8.115 1.887 1.709 2.773.893 6.355-1.902 8.05a5.695 5.695 0 0 1-3.068.886Zm3.417-4.274-.427-.193s-.621-.27-1.01-.462c-.038 0-.077-.039-.116-.039a.565.565 0 0 0-.272.077s-.039.039-.582.655a.214.214 0 0 1-.194.116h-.04a.295.295 0 0 1-.154-.077l-.195-.077c-.427-.193-.815-.424-1.126-.732-.077-.077-.194-.154-.271-.231-.272-.27-.544-.578-.738-.925l-.039-.077c-.039-.038-.039-.077-.078-.154 0-.077 0-.154.04-.192 0 0 .154-.193.27-.308.079-.077.117-.193.195-.27.078-.116.117-.27.078-.385-.04-.193-.505-1.233-.622-1.464a.45.45 0 0 0-.271-.192H4.87c-.078 0-.156.038-.233.038l-.04.039c-.077.038-.155.115-.232.154-.078.077-.117.154-.194.231-.272.347-.427.77-.427 1.194 0 .308.077.616.194.886l.039.115a6.401 6.401 0 0 0 1.436 1.964l.155.154c.117.116.233.193.311.309a6.957 6.957 0 0 0 2.796 1.463c.116.039.272.039.388.077h.388c.194 0 .427-.077.583-.154.116-.077.194-.077.271-.154l.078-.077c.078-.077.155-.115.233-.193.078-.077.155-.154.194-.23.078-.155.117-.347.156-.54v-.27s-.04-.038-.117-.076Z" fill="#222"/></svg>
